X: 40964
T: Trip To Devon
R: reel
M: 4/4
K: Edorian
B,EED EFGA|~B2gB fBed|EFGA BAGB|AFFF GFDE|
FAGF EFGA|~B2gB fBec|(3ded ce dBAF|AFDF E2 B,2|
B,EED EFGA|~B2gB fBed|EFGA BAGB|AF~F2 AFBF|
AFDF EFGA|~B2eB fBgB|(3ded ce dBAF|AFDF E4||
B,E~E2 FG_A=A|Be~e2 ge~e2|gfed Ad~d2|fd~d2 BdAd|
BdAd Be~e2|ge~e2 gfed|ABAF GFED|B,EED ~E2B,2|
B,E~E2 FG_A=A|Be~e2 ge~e2|gfed Ad~d2|fd~d2 ad~d2|
fgfd Be~e2|ge~e2 gfed|ABAF GFED|B,EED||
E3E2 BAF|GEE2 edBd|[e3B3] fgfed|agfe fgfd|e2 E2|
EBAF GEE2|edBd [e3B3] f|gfed agfe|fgfd e2||

